icon-themes/sifr_svg/cmd/sc_arrowshapes.notched-left-arrow.svg

<svg viewBox="0 0 16 16" xmlns="http://www.w3.org/2000/svg"><g fill="#555753" transform="matrix(-1 0 0 1 16 0)"><path d="m11 3v2h-10l1.7011719 3-1.7011719 3h10v2l4-5zm-6.6501953 4h7.7298433l.720704 1-.720704 1h-7.7298433l.6501953-1z"/><path d="m4.3496094 7 .6503906 1-.6503906 1h7.7304686l.720703-1-.720703-1z" opacity=".35"/></g></svg>

<?xml version="1.0" encoding="UTF-8" standalone="no"?>
<svg
   xmlns:dc="http://purl.org/dc/elements/1.1/"
   xmlns:cc="http://creativecommons.org/ns#"
   xmlns:rdf="http://www.w3.org/1999/02/22-rdf-syntax-ns#"
   xmlns:svg="http://www.w3.org/2000/svg"
   xmlns="http://www.w3.org/2000/svg"
   xmlns:sodipodi="http://sodipodi.sourceforge.net/DTD/sodipodi-0.dtd"
   xmlns:inkscape="http://www.inkscape.org/namespaces/inkscape"
   viewBox="0 0 16 16"
   version="1.1"
   id="svg8"
   sodipodi:docname="sc_arrowshapes.notched-left-arrow.svg"
   inkscape:version="0.92.4 (unknown)">
  <metadata
     id="metadata14">
    <rdf:RDF>
      <cc:Work
         rdf:about="">
        <dc:format>image/svg+xml</dc:format>
        <dc:type
           rdf:resource="http://purl.org/dc/dcmitype/StillImage" />
        <dc:title></dc:title>
      </cc:Work>
    </rdf:RDF>
  </metadata>
  <defs
     id="defs12" />
  <sodipodi:namedview
     pagecolor="#ffffff"
     bordercolor="#666666"
     borderopacity="1"
     objecttolerance="10"
     gridtolerance="10"
     guidetolerance="10"
     inkscape:pageopacity="0"
     inkscape:pageshadow="2"
     inkscape:window-width="1366"
     inkscape:window-height="706"
     id="namedview10"
     showgrid="true"
     inkscape:zoom="14.75"
     inkscape:cx="-3.3559322"
     inkscape:cy="8"
     inkscape:window-x="0"
     inkscape:window-y="0"
     inkscape:window-maximized="1"
     inkscape:current-layer="svg8">
    <inkscape:grid
       type="xygrid"
       id="grid821" />
  </sodipodi:namedview>
  <g
     id="g6"
     transform="matrix(-1,0,0,1,16,0)"
     style="fill:#555753">
    <path
       d="M 11,3 V 5 H 1 L 2.7011719,8 1,11 h 10 v 2 L 15,8 Z M 4.3498047,7 h 7.7298433 l 0.720704,1 -0.720704,1 H 4.3498047 L 5,8 Z"
       id="path2"
       inkscape:connector-curvature="0" />
    <path
       d="M 4.3496094,7 5,8 4.3496094,9 H 12.080078 L 12.800781,8 12.080078,7 Z"
       id="path4"
       inkscape:connector-curvature="0"
       style="opacity:0.35" />
  </g>
</svg>
